X:94
T:Rollin in My Sweet Baby's Arms
C:John Baldry
M:4/4
L:1/8
Q:1/8=480
K:C
D2DE G2|A[g2B2][gB] [gB][gB][gB][gB]|[^f_B]BBB AAAA|GGGD ED_B,=B,|G,2G,A, B,DE^F|
G[g2B2][gB] [g2B2][gB][gB]|[gd][gd][gd][gd] [gB][gB][gB]A|[d2A2][dA][dA]
 [dA][dB][dB][dA]|[d2A2][dA][dA] G2A2|
[dB][d2B2][dB] [dB]AAG|G2GA ABBc|cc2c cccc|E2[cE][cE] [c2G2][c2E2]|
DG2G GGEF|^Fddd dc_B=B|G2GD FE/F/ED|G2D2 E2^F2|
G^FGD EFGE|DEDC B,A,G,A,|G,2A,_B, =B,DED|G2DD ED^FD|
G^FGA BdBA|GEDG EDB,G,|A,G,A,B, CB,CD|EDEF ^F2FF|
G^FGA BABc|d^cde gage|cBce e^fge|[g2e2][ge][ge] [ge][ge][g2e2]|
z2[g2d2] [g2d2]de|^fedc BAG^F|G2GD EDB,A,|G,2A,_B, =B,DED|
_B=BG2 G2F^F|A_BAG FD_B,=B,|G,2_B,=B, CDFD|G2[B2G2] [B2G2]GA|
_B=Bde fgfe|dcdc _B=BGD|^Fd2d d2[g2^c2]|[^f2c2][fc][fc] [fc][fc][f2c2]|
_B=Beg _bgbg|egec BG2F|[B^D][cE][c2E2] [c2E2][c2E2]|[_B2E2][BE][BE] [BE] [BE][B2E2]|
[B2G2][B2G2] DFGA|_BAGF DFDC|_B,G,2B, zDFD|[B2G2][B6G6]|
